assets/manim-dark.svg

<svg width="256" height="256" viewBox="0 0 256 256" fill="none" xmlns="http://www.w3.org/2000/svg">
<g clip-path="url(#clip0_555_127)">
<path fill-rule="evenodd" clip-rule="evenodd" d="M60 0H196C229.14 0 256 26.86 256 60V196C256 229.14 229.14 256 196 256H60C26.86 256 0 229.14 0 196V60C0 26.86 26.86 0 60 0Z" fill="#242938"/>
<path d="M223.17 173.75H166.64L194.9 124.79L223.17 173.75Z" fill="#E07A5F"/>
<path fill-rule="evenodd" clip-rule="evenodd" d="M195.309 92.9199V158.33H129.899V92.9199H195.309Z" fill="#525893"/>
<path fill-rule="evenodd" clip-rule="evenodd" d="M129.03 191.03C110.52 191.03 95.5596 176.07 95.5596 157.56C95.5596 139.05 110.52 124.08 129.03 124.08C147.54 124.08 162.51 139.05 162.51 157.56C162.51 176.07 147.54 191.03 129.03 191.03Z" fill="#87C2A5"/>
<path d="M87.6096 121.76L64.9996 68.01C64.0696 65.6 64.0696 65.6 60.7296 65.6H38.8596C36.6396 65.6 34.9696 65.6 34.9696 67.64C34.9696 69.68 37.0096 69.68 37.5696 69.68C39.0496 69.68 42.1996 70.05 44.7896 70.98V133.99C44.7896 136.59 44.7896 141.78 36.8196 142.52C34.5996 142.71 34.5996 144.37 34.5996 144.56C34.5996 146.6 36.4496 146.6 38.6796 146.6H56.8396C59.0696 146.6 60.7296 146.6 60.7296 144.56C60.7296 143.45 59.8096 142.52 58.8796 142.52C49.7996 141.78 49.7996 136.78 49.7996 133.99V75.24L49.9796 75.05L78.7096 144.19C79.8296 146.23 80.5696 146.6 81.3096 146.6C82.7896 146.6 82.9796 145.67 83.7196 144.19L112.63 75.05L112.82 75.24V133.99C112.82 136.59 112.82 141.78 104.66 142.52C102.44 142.71 102.44 144.37 102.44 144.56C102.44 146.6 104.29 146.6 106.52 146.6H138.03C140.25 146.6 141.92 146.6 141.92 144.56C141.92 143.45 140.99 142.52 140.06 142.52C130.98 141.78 130.98 136.78 130.98 133.99V78.2C130.98 75.61 130.98 70.42 138.95 69.68C140.25 69.68 141.18 68.94 141.18 67.64C141.18 65.6 139.51 65.6 137.28 65.6H114.49C111.52 65.6 111.15 65.6 110.22 68.01L87.6096 121.76ZM84.0896 123.98C85.0196 125.84 85.1996 126.02 86.6896 126.58L81.3096 139H81.1296L54.2496 74.68C53.6896 73.2 52.5796 71.16 51.0996 69.68H61.2896L84.0896 123.98ZM116.9 69.67H129.5C126.72 72.63 126.72 75.78 126.72 77.82V134.36C126.72 136.39 126.72 139.55 129.5 142.51H114.31C116.9 139.55 116.9 136.39 116.9 134.36V69.67Z" fill="#ECE6E2"/>
</g>
<defs>
<clipPath id="clip0_555_127">
<rect width="256" height="256" fill="white"/>
</clipPath>
</defs>
</svg>

<svg version="1.2" xmlns="http://www.w3.org/2000/svg" viewBox="0 0 256 256" width="256" height="256">
	<title>manim-logo-sidebar-dark</title>
	<style>
		.s0 { fill: #242938 } 
		.s1 { fill: #e07a5f } 
		.s2 { fill: #525893 } 
		.s3 { fill: #87c2a5 } 
		.s4 { fill: #ece6e2 } 
	</style>
	<path id="Layer 2" fill-rule="evenodd" class="s0" d="m60 0h136c33.14 0 60 26.86 60 60v136c0 33.14-26.86 60-60 60h-136c-33.14 0-60-26.86-60-60v-136c0-33.14 26.86-60 60-60z"/>
	<g id="layer1">
		<g id="g86">
			<path id="path34" class="s1" d="m223.17 173.75h-56.53l28.26-48.96z"/>
			<path id="rect36" fill-rule="evenodd" class="s2" d="m195.31 92.92v65.41h-65.41v-65.41z"/>
			<path id="circle38" fill-rule="evenodd" class="s3" d="m129.03 191.03c-18.51 0-33.47-14.96-33.47-33.47 0-18.51 14.96-33.48 33.47-33.48 18.51 0 33.48 14.97 33.48 33.48 0 18.51-14.97 33.47-33.48 33.47z"/>
			<path id="path1500" class="s4" d="m87.61 121.76l-22.61-53.75c-0.93-2.41-0.93-2.41-4.27-2.41h-21.87c-2.22 0-3.89 0-3.89 2.04 0 2.04 2.04 2.04 2.6 2.04 1.48 0 4.63 0.37 7.22 1.3v63.01c0 2.6 0 7.79-7.97 8.53-2.22 0.19-2.22 1.85-2.22 2.04 0 2.04 1.85 2.04 4.08 2.04h18.16c2.23 0 3.89 0 3.89-2.04 0-1.11-0.92-2.04-1.85-2.04-9.08-0.74-9.08-5.74-9.08-8.53v-58.75l0.18-0.19 28.73 69.14c1.12 2.04 1.86 2.41 2.6 2.41 1.48 0 1.67-0.93 2.41-2.41l28.91-69.14 0.19 0.19v58.75c0 2.6 0 7.79-8.16 8.53-2.22 0.19-2.22 1.85-2.22 2.04 0 2.04 1.85 2.04 4.08 2.04h31.51c2.22 0 3.89 0 3.89-2.04 0-1.11-0.93-2.04-1.86-2.04-9.08-0.74-9.08-5.74-9.08-8.53v-55.79c0-2.59 0-7.78 7.97-8.52 1.3 0 2.23-0.74 2.23-2.04 0-2.04-1.67-2.04-3.9-2.04h-22.79c-2.97 0-3.34 0-4.27 2.41zm-3.52 2.22c0.93 1.86 1.11 2.04 2.6 2.6l-5.38 12.42h-0.18l-26.88-64.32c-0.56-1.48-1.67-3.52-3.15-5h10.19zm32.81-54.31h12.6c-2.78 2.96-2.78 6.11-2.78 8.15v56.54c0 2.03 0 5.19 2.78 8.15h-15.19c2.59-2.96 2.59-6.12 2.59-8.15z"/>
		</g>
	</g>
</svg>
